X: 82
M: 2/4
L: 1/8
K: C
(A B) (c d) | (e d) (c B) | c z c z | c3 (c/ d/) | e- e e e | d2 d d |
c- c c c | B2 B B | (AB) (cd) | (ed) (c B) | c z c z | c3 |]


